icons/op-align-left-24.svg

<svg width="24" height="24" viewBox="0 0 24 24" fill="none" xmlns="http://www.w3.org/2000/svg">
<path d="M15 7.09091H4V6H15V7.09091ZM20 9.27273H4V8.18182H20V9.27273ZM16 11.4545H4V10.3636H16V11.4545ZM19 13.6364H4V12.5455H19V13.6364ZM15 15.8182H4V14.7273H15V15.8182ZM18 18H4V16.9091H18V18Z" fill="black"/>
</svg>

<svg xmlns="http://www.w3.org/2000/svg" width="24" height="24" viewBox="0 0 24 24"><path d="M15 7.091H4V6h11v1.091Zm5 2.182H4V8.182h16v1.091Zm-4 2.181H4v-1.09h12v1.09Zm3 2.182H4v-1.09h15v1.09Zm-4 2.182H4v-1.091h11v1.091ZM18 18H4v-1.091h14V18Z"/></svg>
